X:1
T:Rose of Allandale
M:3/4
L:1/4
K:G
 D| B2 A| G2 G| G- F E| D2 D/2D/2| G2 G| G A B| A3-| A2 B| B2 A| G2 G|\
 G3/2- F/2 E| D2 D| G- A B| A2 F| G3-| G zD/2-C/2| B, D2| c2 E| D2 G|\
 B3| B B c| d2c/2-B/2| A3-| A2 B| B2 A| G2 G| G- F E| D2 G/2G/2| G- A B|\
 A2 F| G3-| G z d| d2 B| B2 G| G/2-A/4-G/4 E2-| E z c| c2 B| B3/2- A/2 G|\
 B/2-c/4-B/4 A2-| A z B|
